Catalina-dark/actions/22/media-album-repeat-amarok.svg

<svg width="22" height="22" viewBox="3 3 16 16" xmlns="http://www.w3.org/2000/svg">
<defs>
<style id="current-color-scheme" type="text/css">.ColorScheme-Text {
        color:#f2f2f2
      }</style>
</defs>
<path class="ColorScheme-Text" d="m3.8887 3c-0.49244 0-0.88867 0.35758-0.88867 0.80078v14.398c0 0.4432 0.39623 0.80078 0.88867 0.80078h14.223c0.49244 0 0.88867-0.35758 0.88867-0.80078v-14.398c0-0.4432-0.39623-0.80078-0.88867-0.80078h-14.223zm9.9629 3.5c0.19284 0.034 0.33594 0.21514 0.33594 0.45703l-0.0156 6.2891c-0.0636 0.46938-0.46283 0.91496-1.041 1.0723-0.72472 0.19717-1.4384-0.13202-1.5938-0.7207-0.15535-0.58869 0.2987-1.2247 1.0234-1.4219 0.40161-0.10921 0.78823-0.0442 1.0898 0.1211v-3.8125l-3.7578 1.0547-0.0176 4.832c-0.0636 0.46931-0.46088 0.91503-1.0391 1.0723-0.72473 0.19717-1.4384-0.13209-1.5938-0.7207-0.15536-0.58876 0.2987-1.2267 1.0234-1.4238 0.40163-0.10922 0.78821-0.0423 1.0898 0.12305v-5.1113c0-0.32251 0.23966-0.65479 0.53711-0.73828l3.959-1.0723zm0.21485 9.166h4v2.5h-1.5v0.5l-1.5-0.75 1.5-0.75v0.5h1v-1.5h-3v2h-0.5v-2.5z" fill="currentColor"/>
</svg>

<svg xmlns="http://www.w3.org/2000/svg" viewBox="0 0 22 22">
  <defs id="defs3051">
    <style type="text/css" id="current-color-scheme">
      .ColorScheme-Text {
        color:#f2f2f2
      }
      </style>
  </defs>
 <path 
     style="fill:currentColor;fill-opacity:1;stroke:none"      
	 class="ColorScheme-Text"
        d="M 3.88867,3 C 3.39623,3 3,3.35758 3,3.80078 L 3,18.19922 C 3,18.64242 3.39623,19 3.88867,19 l 14.22266,0 C 18.60377,19 19,18.64242 19,18.19922 L 19,3.80078 C 19,3.35758 18.60377,3 18.11133,3 L 3.88867,3 Z m 9.96289,3.5 c 0.19284,0.034 0.33594,0.21514 0.33594,0.45703 l -0.0156,6.28906 c -0.0636,0.46938 -0.46283,0.91496 -1.04102,1.07227 -0.72472,0.19717 -1.43839,-0.13202 -1.59375,-0.7207 -0.15535,-0.58869 0.2987,-1.22471 1.02344,-1.42188 0.40161,-0.10921 0.78823,-0.0442 1.08985,0.1211 l 0,-3.8125 -3.75781,1.05468 -0.0176,4.83203 C 9.81141,14.8404 9.41413,15.28612 8.83595,15.44336 8.11122,15.64053 7.39754,15.31127 7.2422,14.72266 7.08684,14.1339 7.5409,13.496 8.26563,13.29883 c 0.40163,-0.10922 0.78821,-0.0423 1.08985,0.12305 l 0,-5.11133 c 0,-0.32251 0.23966,-0.65479 0.53711,-0.73828 L 13.85157,6.5 Z m 0.21485,9.16602 4,0 0,2 0,0.5 -1.5,0 0,0.5 -1.5,-0.75 1.5,-0.75 0,0.5 1,0 0,-1.5 -3,0 0,2 -0.5,0 0,-2.5 z"
     />
</svg>
